svgs/thin/input-text.svg

<svg xmlns="http://www.w3.org/2000/svg" viewBox="0 0 640 512"><!--! Font Awesome Pro 6.4.2 by @fontawesome - https://fontawesome.com License - https://fontawesome.com/license (Commercial License) Copyright 2023 Fonticons, Inc. --><path d="M64 80c-26.5 0-48 21.5-48 48V384c0 26.5 21.5 48 48 48H576c26.5 0 48-21.5 48-48V128c0-26.5-21.5-48-48-48H64zM0 128C0 92.7 28.7 64 64 64H576c35.3 0 64 28.7 64 64V384c0 35.3-28.7 64-64 64H64c-35.3 0-64-28.7-64-64V128zm160 32c3.2 0 6.2 2 7.4 5l72 176c1.7 4.1-.3 8.8-4.4 10.4s-8.8-.3-10.4-4.4l-14.3-35H109.7L95.4 347c-1.7 4.1-6.3 6-10.4 4.4s-6-6.3-4.4-10.4l72-176c1.2-3 4.2-5 7.4-5zm0 29.1L116.3 296h87.4L160 189.1zM272 168c0-4.4 3.6-8 8-8h52c28.7 0 52 23.3 52 52c0 15.7-6.9 29.7-17.9 39.2c19.8 7.4 33.9 26.4 33.9 48.8c0 28.7-23.3 52-52 52H280c-4.4 0-8-3.6-8-8V320 256 192 168zm16 24v56h44c19.9 0 36-16.1 36-36s-16.1-36-36-36H288v16zm44 72H288v56 16h60c19.9 0 36-16.1 36-36s-16.1-36-36-36H332z"/></svg>

<svg xmlns="http://www.w3.org/2000/svg" viewBox="0 0 640 512"><!--! Font Awesome Pro 6.1.1 by @fontawesome - https://fontawesome.com License - https://fontawesome.com/license (Commercial License) Copyright 2022 Fonticons, Inc. --><path d="M160 160C163.2 160 166.2 161.1 167.4 164.1L239.4 340.1C241.1 345.1 239.1 349.7 235 351.4C230.9 353.1 226.3 351.1 224.6 347L210.3 312H109.7L95.4 347C93.73 351.1 89.06 353.1 84.97 351.4C80.88 349.7 78.92 345.1 80.6 340.1L152.6 164.1C153.8 161.1 156.8 160 160 160V160zM116.3 296H203.7L160 189.1L116.3 296zM272 168C272 163.6 275.6 160 280 160H332C360.7 160 384 183.3 384 212C384 227.7 377.1 241.7 366.1 251.2C385.9 258.6 400 277.7 400 300C400 328.7 376.7 352 348 352H280C275.6 352 272 348.4 272 344V168zM288 248H332C351.9 248 368 231.9 368 212C368 192.1 351.9 176 332 176H288V248zM288 264V336H348C367.9 336 384 319.9 384 300C384 280.1 367.9 264 348 264H288zM0 128C0 92.65 28.65 64 64 64H576C611.3 64 640 92.65 640 128V384C640 419.3 611.3 448 576 448H64C28.65 448 0 419.3 0 384V128zM16 128V384C16 410.5 37.49 432 64 432H576C602.5 432 624 410.5 624 384V128C624 101.5 602.5 80 576 80H64C37.49 80 16 101.5 16 128z"/></svg>
